usr/share/icons/biglinux-icons-material-dark/22/actions/document-edit-decrypt-verify.svg

<svg xmlns="http://www.w3.org/2000/svg" viewBox="0 0 22 22">
  <defs id="defs3051">
    <style type="text/css" id="current-color-scheme">
      .ColorScheme-Text {
        color:#dedede;
      }
      </style>
  </defs>
 <path 
    style="fill:currentColor;fill-opacity:1;stroke:none" 
	d="m4 2.998047v.001953 2h2v-2h2v2h2v-2h2v2h2v-2h2v2h2v-2-.001953h-1-12-1m2 3.00195v2h2v-2h-2m4 0v2h2v-2h-2m4 0v2h2v-2h-2m-10 3v2 8h1 7v-1h-7v-7h1v-2h-2m4 0v2h2v-2h-2m5 2c-1.662003 0-3 1.338-3 3 0 1.662 1.337997 3 3 3 .649392 0 1.246354-.208586 1.736328-.556641l2.556641 2.556641.707031-.707031-2.556641-2.556641c.348055-.489974.556641-1.086937.556641-1.736328 0-1.662-1.337997-3-3-3m0 1c1.108003 0 2 .892 2 2 0 1.108-.891997 2-2 2-1.108003 0-2-.892-2-2 0-1.108.891997-2 2-2" 
    class="ColorScheme-Text"
    />
</svg>

<svg xmlns="http://www.w3.org/2000/svg" viewBox="0 0 22 22">
<defs id="defs3051">
<style id="current-color-scheme" type="text/css">
.ColorScheme-Text{color:#dedede}
</style>
</defs>
<path d="M4 2.998V5h2V3h2v2h2V3h2v2h2V3h2v2h2V2.998zM6 6v2h2V6zm4 0v2h2V6zm4 0v2h2V6zM4 9v10h8v-1H5v-7h1V9zm4 0v2h2V9zm5 2c-1.662 0-3 1.338-3 3a2.993 2.993 0 0 0 4.736 2.443L17.293 19l.707-.707-2.557-2.557A2.993 2.993 0 0 0 13 11m0 1c1.108 0 2 .892 2 2s-.892 2-2 2-2-.892-2-2 .892-2 2-2" class="ColorScheme-Text" style="fill:currentColor;fill-opacity:1;stroke:none"/>
</svg>
